assets/Jeans/Flat/jeans_flat.svg

<svg width="32" height="32" viewBox="0 0 32 32" fill="none" xmlns="http://www.w3.org/2000/svg">
<path d="M14.9961 11L12.57 28C12.4889 28.3314 12.2844 28.6194 11.9982 28.8052C11.7121 28.9911 11.3658 29.0607 11.03 29L7.68003 28.5C7.33748 28.441 7.03091 28.2521 6.82414 27.9727C6.61738 27.6932 6.52636 27.3448 6.57003 27L9.13003 2.82902C9.15135 2.60932 9.25096 2.4046 9.41067 2.25223C9.57039 2.09986 9.77956 2.00999 10 1.99902H21.91C22.137 1.99987 22.3559 2.08372 22.5254 2.23476C22.6948 2.3858 22.8032 2.59361 22.83 2.81902L25.42 27C25.4723 27.3507 25.3855 27.708 25.1782 27.9957C24.9708 28.2834 24.6593 28.4787 24.31 28.54L21 29.1C20.8239 29.1331 20.643 29.1308 20.4678 29.0932C20.2925 29.0556 20.1266 28.9835 19.9795 28.8811C19.8324 28.7787 19.7072 28.6481 19.6112 28.4968C19.5151 28.3455 19.4501 28.1767 19.42 28L16.9961 11H14.9961Z" fill="#00A6ED"/>
<path d="M16.0098 3.6201C16.2915 3.6201 16.5198 3.39176 16.5198 3.1101C16.5198 2.82843 16.2915 2.6001 16.0098 2.6001C15.7282 2.6001 15.4998 2.82843 15.4998 3.1101C15.4998 3.39176 15.7282 3.6201 16.0098 3.6201ZM14.9998 11.0076H17.143C17.2555 11.0089 17.3671 10.9879 17.4713 10.9458C17.5756 10.9037 17.6705 10.8413 17.7505 10.7622C17.8305 10.6832 17.894 10.589 17.9373 10.4852C17.9807 10.3814 18.003 10.2701 18.003 10.1576L18.0116 5.01172H19.9998C19.9768 6.10024 20.33 7.2417 20.9998 8.10003C21.5153 8.6282 22.1412 9.03572 22.8328 9.29333C23.0622 9.37878 23.2969 9.44703 23.535 9.49782L23.4361 8.43087C23.3814 8.41397 23.3269 8.39588 23.2728 8.3766C22.7197 8.17958 22.2169 7.86324 21.7998 7.45003C21.2712 6.7741 20.989 5.86974 20.9998 5.01172H23.0623L22.9569 4.00366H8.99591L8.89828 5.01172H10.9998C10.9983 5.86663 10.7056 6.76384 10.1698 7.43003C9.75613 7.83917 9.25817 8.15313 8.71067 8.35002C8.65345 8.3706 8.59583 8.38985 8.53786 8.40776C8.48522 8.87641 8.46845 9.07183 8.45551 9.22251C8.44855 9.30367 8.44269 9.37185 8.43295 9.46277C8.66723 9.41064 8.89805 9.34159 9.12357 9.25587C9.80039 8.99861 10.4133 8.59741 10.9198 8.08003C11.6082 7.23136 11.9858 6.1045 11.9898 5.01172H17.0016V9.74386C17.0018 9.80949 16.9771 9.87276 16.9326 9.92098C16.8881 9.96921 16.827 9.99881 16.7616 10.0039H15.6898C15.6898 10.0039 14.9898 10.0076 14.9898 10.8476L14.9998 11.0076ZM25.195 26.6809L19.6552 27.6268C19.3177 27.6845 19.0908 28.0048 19.1484 28.3424L19.3504 29.5252C19.408 29.8628 19.7284 30.0897 20.0659 30.032L25.6057 29.0861C25.9432 29.0285 26.1701 28.7081 26.1125 28.3706L25.9105 27.1877C25.8529 26.8502 25.5325 26.6233 25.195 26.6809ZM6.39172 29.0972L11.9315 30.0431C12.2691 30.1007 12.5894 29.8738 12.647 29.5363L12.849 28.3534C12.9067 28.0159 12.6798 27.6956 12.3422 27.6379L6.80241 26.692C6.46488 26.6343 6.14454 26.8612 6.0869 27.1988L5.88492 28.3816C5.82729 28.7192 6.05419 29.0395 6.39172 29.0972Z" fill="#0074BA"/>
</svg>

<svg xmlns="http://www.w3.org/2000/svg" width="32" height="32" fill="none"><path fill="#00A6ED" d="M14.996 11 12.57 28a1.34 1.34 0 0 1-1.54 1l-3.35-.5A1.35 1.35 0 0 1 6.57 27L9.13 2.829a.92.92 0 0 1 .87-.83h11.91a.93.93 0 0 1 .92.82L25.42 27a1.36 1.36 0 0 1-1.11 1.54L21 29.1a1.349 1.349 0 0 1-1.58-1.1l-2.424-17h-2Z"/><path fill="#0074BA" d="M16.01 3.62a.51.51 0 1 0 0-1.02.51.51 0 0 0 0 1.02ZM15 11.008h2.143a.85.85 0 0 0 .86-.85l.009-5.146H20c-.023 1.088.33 2.23 1 3.088a5 5 0 0 0 2.535 1.398l-.099-1.067a4 4 0 0 1-1.636-.98c-.529-.677-.811-1.581-.8-2.44h2.062l-.105-1.007H8.996l-.098 1.008H11c-.002.855-.294 1.752-.83 2.418a4 4 0 0 1-1.632.978c-.053.468-.07.664-.082.815-.007.08-.013.149-.023.24A5 5 0 0 0 10.92 8.08c.688-.849 1.066-1.976 1.07-3.068h5.012v4.732a.26.26 0 0 1-.24.26H15.69s-.7.004-.7.844l.01.16ZM25.195 26.68l-5.54.946a.62.62 0 0 0-.507.715l.202 1.183a.62.62 0 0 0 .716.507l5.54-.946a.62.62 0 0 0 .506-.715l-.201-1.183a.62.62 0 0 0-.716-.507ZM6.392 29.097l5.54.946a.62.62 0 0 0 .715-.507l.202-1.183a.62.62 0 0 0-.507-.715l-5.54-.946a.62.62 0 0 0-.715.507l-.202 1.183a.62.62 0 0 0 .507.715Z"/></svg>
